Homework 11 (freehand svg)/assets/images/Logo.svg

<svg width="200" height="36" viewBox="0 0 200 36" fill="none" xmlns="http://www.w3.org/2000/svg">
<path d="M48.132 31C47.712 31 47.362 30.86 47.082 30.58C46.8253 30.3 46.697 29.9617 46.697 29.565V7.9C46.697 7.50333 46.8253 7.17667 47.082 6.92C47.362 6.64 47.7003 6.5 48.097 6.5H60.382C60.7787 6.5 61.117 6.62833 61.397 6.885C61.677 7.14167 61.817 7.46833 61.817 7.865C61.817 8.23833 61.677 8.55333 61.397 8.81C61.117 9.06667 60.7787 9.195 60.382 9.195H49.357L49.567 8.915V17.49L49.392 17.105H58.807C59.2037 17.105 59.542 17.245 59.822 17.525C60.102 17.7817 60.242 18.1083 60.242 18.505C60.242 18.855 60.102 19.17 59.822 19.45C59.542 19.7067 59.2037 19.835 58.807 19.835H49.322L49.567 19.52V29.565C49.567 29.9617 49.427 30.3 49.147 30.58C48.867 30.86 48.5287 31 48.132 31ZM67.0894 31C66.6928 31 66.3544 30.86 66.0744 30.58C65.8178 30.3 65.6894 29.9617 65.6894 29.565V14.305C65.6894 13.9083 65.8178 13.5817 66.0744 13.325C66.3544 13.045 66.6928 12.905 67.0894 12.905C67.5094 12.905 67.8478 13.045 68.1044 13.325C68.3611 13.5817 68.4894 13.9083 68.4894 14.305V18.925L68.0694 18.19C68.2094 17.4667 68.4544 16.7667 68.8044 16.09C69.1778 15.39 69.6444 14.7717 70.2044 14.235C70.7644 13.675 71.4061 13.2433 72.1294 12.94C72.8528 12.6133 73.6461 12.45 74.5094 12.45C75.0228 12.45 75.4894 12.5783 75.9094 12.835C76.3528 13.0683 76.5744 13.4067 76.5744 13.85C76.5744 14.34 76.4461 14.7017 76.1894 14.935C75.9328 15.1683 75.6411 15.285 75.3144 15.285C75.0111 15.285 74.7194 15.2267 74.4394 15.11C74.1594 14.97 73.8094 14.9 73.3894 14.9C72.8061 14.9 72.2228 15.0633 71.6394 15.39C71.0794 15.6933 70.5544 16.1367 70.0644 16.72C69.5978 17.3033 69.2128 17.9683 68.9094 18.715C68.6294 19.4383 68.4894 20.22 68.4894 21.06V29.565C68.4894 29.9617 68.3494 30.3 68.0694 30.58C67.8128 30.86 67.4861 31 67.0894 31ZM87.3161 31.35C85.4495 31.35 83.8161 30.9533 82.4161 30.16C81.0161 29.3667 79.9195 28.2817 79.1261 26.905C78.3561 25.505 77.9711 23.895 77.9711 22.075C77.9711 20.045 78.3678 18.3183 79.1611 16.895C79.9778 15.4483 81.0278 14.3517 82.3111 13.605C83.6178 12.835 84.9945 12.45 86.4411 12.45C87.5145 12.45 88.5528 12.6483 89.5561 13.045C90.5595 13.4417 91.4461 14.025 92.2161 14.795C92.9861 15.5417 93.6045 16.4517 94.0711 17.525C94.5378 18.575 94.7828 19.7533 94.8061 21.06C94.8061 21.4333 94.6661 21.7483 94.3861 22.005C94.1061 22.2617 93.7795 22.39 93.4061 22.39H79.5811L78.9511 19.975H92.4261L91.8661 20.465V19.695C91.7728 18.7383 91.4461 17.9217 90.8861 17.245C90.3495 16.545 89.6845 16.0083 88.8911 15.635C88.1211 15.2617 87.3045 15.075 86.4411 15.075C85.7411 15.075 85.0411 15.2033 84.3411 15.46C83.6645 15.6933 83.0461 16.09 82.4861 16.65C81.9495 17.1867 81.5061 17.8867 81.1561 18.75C80.8295 19.6133 80.6661 20.6517 80.6661 21.865C80.6661 23.2183 80.9345 24.4083 81.4711 25.435C82.0311 26.4617 82.8011 27.2783 83.7811 27.885C84.7611 28.4683 85.9045 28.76 87.2111 28.76C88.0278 28.76 88.7395 28.655 89.3461 28.445C89.9528 28.235 90.4778 27.9783 90.9211 27.675C91.3645 27.3483 91.7378 27.0217 92.0411 26.695C92.3445 26.485 92.6361 26.38 92.9161 26.38C93.2661 26.38 93.5461 26.4967 93.7561 26.73C93.9895 26.9633 94.1061 27.2433 94.1061 27.57C94.1061 27.9667 93.9195 28.3167 93.5461 28.62C92.8928 29.3433 92.0061 29.985 90.8861 30.545C89.7661 31.0817 88.5761 31.35 87.3161 31.35ZM107.38 31.35C105.513 31.35 103.88 30.9533 102.48 30.16C101.08 29.3667 99.983 28.2817 99.1896 26.905C98.4196 25.505 98.0346 23.895 98.0346 22.075C98.0346 20.045 98.4313 18.3183 99.2246 16.895C100.041 15.4483 101.091 14.3517 102.375 13.605C103.681 12.835 105.058 12.45 106.505 12.45C107.578 12.45 108.616 12.6483 109.62 13.045C110.623 13.4417 111.51 14.025 112.28 14.795C113.05 15.5417 113.668 16.4517 114.135 17.525C114.601 18.575 114.846 19.7533 114.87 21.06C114.87 21.4333 114.73 21.7483 114.45 22.005C114.17 22.2617 113.843 22.39 113.47 22.39H99.6446L99.0146 19.975H112.49L111.93 20.465V19.695C111.836 18.7383 111.51 17.9217 110.95 17.245C110.413 16.545 109.748 16.0083 108.955 15.635C108.185 15.2617 107.368 15.075 106.505 15.075C105.805 15.075 105.105 15.2033 104.405 15.46C103.728 15.6933 103.11 16.09 102.55 16.65C102.013 17.1867 101.57 17.8867 101.22 18.75C100.893 19.6133 100.73 20.6517 100.73 21.865C100.73 23.2183 100.998 24.4083 101.535 25.435C102.095 26.4617 102.865 27.2783 103.845 27.885C104.825 28.4683 105.968 28.76 107.275 28.76C108.091 28.76 108.803 28.655 109.41 28.445C110.016 28.235 110.541 27.9783 110.985 27.675C111.428 27.3483 111.801 27.0217 112.105 26.695C112.408 26.485 112.7 26.38 112.98 26.38C113.33 26.38 113.61 26.4967 113.82 26.73C114.053 26.9633 114.17 27.2433 114.17 27.57C114.17 27.9667 113.983 28.3167 113.61 28.62C112.956 29.3433 112.07 29.985 110.95 30.545C109.83 31.0817 108.64 31.35 107.38 31.35ZM127.828 12.625C129.368 12.625 130.581 12.9633 131.468 13.64C132.378 14.2933 133.02 15.18 133.393 16.3C133.79 17.3967 133.988 18.6217 133.988 19.975V29.565C133.988 29.9617 133.848 30.3 133.568 30.58C133.311 30.86 132.985 31 132.588 31C132.191 31 131.853 30.86 131.573 30.58C131.316 30.3 131.188 29.9617 131.188 29.565V19.975C131.188 19.0883 131.06 18.295 130.803 17.595C130.546 16.8717 130.115 16.3 129.508 15.88C128.925 15.4367 128.12 15.215 127.093 15.215C126.136 15.215 125.261 15.4367 124.468 15.88C123.675 16.3 123.045 16.8717 122.578 17.595C122.111 18.295 121.878 19.0883 121.878 19.975V29.565C121.878 29.9617 121.738 30.3 121.458 30.58C121.201 30.86 120.875 31 120.478 31C120.081 31 119.743 30.86 119.463 30.58C119.206 30.3 119.078 29.9617 119.078 29.565V6.5C119.078 6.10333 119.206 5.77667 119.463 5.52C119.743 5.24 120.081 5.1 120.478 5.1C120.898 5.1 121.236 5.24 121.493 5.52C121.75 5.77667 121.878 6.10333 121.878 6.5V16.965L121.178 17.735C121.295 17.1283 121.551 16.5217 121.948 15.915C122.345 15.285 122.846 14.725 123.453 14.235C124.06 13.745 124.736 13.36 125.483 13.08C126.23 12.7767 127.011 12.625 127.828 12.625ZM154.086 12.73C154.482 12.73 154.809 12.87 155.066 13.15C155.346 13.4067 155.486 13.7333 155.486 14.13V29.565C155.486 29.9617 155.346 30.3 155.066 30.58C154.809 30.86 154.482 31 154.086 31C153.666 31 153.327 30.86 153.071 30.58C152.814 30.3 152.686 29.9617 152.686 29.565V26.24L153.351 26.17C153.351 26.6833 153.176 27.2433 152.826 27.85C152.476 28.4567 151.997 29.0283 151.391 29.565C150.784 30.0783 150.061 30.51 149.221 30.86C148.404 31.1867 147.517 31.35 146.561 31.35C144.974 31.35 143.551 30.9417 142.291 30.125C141.031 29.285 140.027 28.1533 139.281 26.73C138.557 25.3067 138.196 23.685 138.196 21.865C138.196 20.0217 138.557 18.4 139.281 17C140.027 15.5767 141.031 14.4683 142.291 13.675C143.551 12.8583 144.951 12.45 146.491 12.45C147.494 12.45 148.427 12.6133 149.291 12.94C150.154 13.2667 150.901 13.71 151.531 14.27C152.184 14.83 152.686 15.4483 153.036 16.125C153.409 16.8017 153.596 17.4783 153.596 18.155L152.686 17.945V14.13C152.686 13.7333 152.814 13.4067 153.071 13.15C153.327 12.87 153.666 12.73 154.086 12.73ZM146.876 28.76C148.042 28.76 149.069 28.4567 149.956 27.85C150.866 27.2433 151.566 26.4267 152.056 25.4C152.569 24.35 152.826 23.1717 152.826 21.865C152.826 20.5817 152.569 19.4267 152.056 18.4C151.566 17.35 150.866 16.5333 149.956 15.95C149.069 15.3433 148.042 15.04 146.876 15.04C145.732 15.04 144.706 15.3317 143.796 15.915C142.909 16.4983 142.209 17.3033 141.696 18.33C141.182 19.3567 140.926 20.535 140.926 21.865C140.926 23.1717 141.171 24.35 141.661 25.4C142.174 26.4267 142.874 27.2433 143.761 27.85C144.671 28.4567 145.709 28.76 146.876 28.76ZM169.67 12.45C171.256 12.45 172.505 12.7767 173.415 13.43C174.325 14.0833 174.966 14.9583 175.34 16.055C175.736 17.1517 175.935 18.3767 175.935 19.73V29.565C175.935 29.9617 175.795 30.3 175.515 30.58C175.258 30.86 174.931 31 174.535 31C174.138 31 173.8 30.86 173.52 30.58C173.263 30.3 173.135 29.9617 173.135 29.565V19.8C173.135 18.9133 172.995 18.12 172.715 17.42C172.458 16.6967 172.015 16.125 171.385 15.705C170.778 15.2617 169.938 15.04 168.865 15.04C167.885 15.04 166.986 15.2617 166.17 15.705C165.353 16.125 164.7 16.6967 164.21 17.42C163.72 18.12 163.475 18.9133 163.475 19.8V29.565C163.475 29.9617 163.335 30.3 163.055 30.58C162.798 30.86 162.471 31 162.075 31C161.678 31 161.34 30.86 161.06 30.58C160.803 30.3 160.675 29.9617 160.675 29.565V14.305C160.675 13.9083 160.803 13.5817 161.06 13.325C161.34 13.045 161.678 12.905 162.075 12.905C162.495 12.905 162.833 13.045 163.09 13.325C163.346 13.5817 163.475 13.9083 163.475 14.305V16.79L162.775 17.56C162.891 16.9533 163.16 16.3467 163.58 15.74C164 15.11 164.525 14.55 165.155 14.06C165.785 13.57 166.485 13.185 167.255 12.905C168.025 12.6017 168.83 12.45 169.67 12.45ZM196.024 5.1C196.421 5.1 196.748 5.24 197.004 5.52C197.284 5.77667 197.424 6.10333 197.424 6.5V29.565C197.424 29.9617 197.284 30.3 197.004 30.58C196.748 30.86 196.421 31 196.024 31C195.604 31 195.266 30.86 195.009 30.58C194.753 30.3 194.624 29.9617 194.624 29.565V26.24L195.289 25.995C195.289 26.555 195.114 27.15 194.764 27.78C194.414 28.3867 193.936 28.9583 193.329 29.495C192.723 30.0317 191.999 30.475 191.159 30.825C190.343 31.175 189.456 31.35 188.499 31.35C186.936 31.35 185.513 30.9417 184.229 30.125C182.969 29.3083 181.966 28.1883 181.219 26.765C180.496 25.3417 180.134 23.72 180.134 21.9C180.134 20.0567 180.496 18.4233 181.219 17C181.966 15.5767 182.969 14.4683 184.229 13.675C185.489 12.8583 186.889 12.45 188.429 12.45C189.409 12.45 190.331 12.6133 191.194 12.94C192.058 13.2667 192.804 13.71 193.434 14.27C194.088 14.83 194.601 15.4483 194.974 16.125C195.348 16.8017 195.534 17.4783 195.534 18.155L194.624 17.945V6.5C194.624 6.10333 194.753 5.77667 195.009 5.52C195.266 5.24 195.604 5.1 196.024 5.1ZM188.814 28.76C189.981 28.76 191.008 28.4683 191.894 27.885C192.804 27.2783 193.504 26.4617 193.994 25.435C194.508 24.385 194.764 23.2067 194.764 21.9C194.764 20.57 194.508 19.3917 193.994 18.365C193.504 17.3383 192.804 16.5333 191.894 15.95C191.008 15.3433 189.981 15.04 188.814 15.04C187.671 15.04 186.644 15.3433 185.734 15.95C184.848 16.5333 184.148 17.3383 183.634 18.365C183.121 19.3917 182.864 20.57 182.864 21.9C182.864 23.1833 183.121 24.35 183.634 25.4C184.148 26.4267 184.848 27.2433 185.734 27.85C186.644 28.4567 187.671 28.76 188.814 28.76Z" fill="#16133D"/>
<path d="M31.0638 10.7871C31.0638 6.49329 27.5798 3 23.2975 3C20.0757 3 17.2106 5.02039 16.0639 7.953C14.9171 5.02039 12.0518 3 8.83015 3C4.54788 3 1.06384 6.49329 1.06384 10.7871C1.06384 14.0134 3.00547 16.8292 5.91059 18C3.00547 19.1708 1.06384 21.9866 1.06384 25.2129C1.06384 29.5067 4.54788 33 8.83015 33C12.0518 33 14.9171 30.9796 16.0639 28.047C17.2106 30.9796 20.0757 33 23.2975 33C27.5798 33 31.0638 29.5067 31.0638 25.2129C31.0638 21.9866 29.1222 19.1708 26.2171 18C29.1222 16.8292 31.0638 14.0134 31.0638 10.7871ZM24.8904 17.6349C24.7211 17.6741 24.6011 17.8257 24.6011 18C24.6011 18.1743 24.7211 18.3259 24.8904 18.3651C28.0848 19.1096 30.3158 21.9254 30.3158 25.2129C30.3158 29.0933 27.1674 32.25 23.2975 32.25C19.9947 32.25 17.1063 29.9004 16.4299 26.6635C16.3937 26.4899 16.2409 26.3654 16.0639 26.3654C15.887 26.3654 15.7341 26.4899 15.698 26.6635C15.0214 29.9004 12.133 32.25 8.83015 32.25C4.96024 32.25 1.81186 29.0933 1.81186 25.2129C1.81186 21.9254 4.04293 19.1096 7.23733 18.3651C7.40662 18.3259 7.5266 18.1743 7.5266 18C7.5266 17.8257 7.40662 17.6741 7.23733 17.6349C4.04293 16.8904 1.81186 14.0746 1.81186 10.7871C1.81186 6.90674 4.96024 3.75 8.83015 3.75C12.133 3.75 15.0214 6.09961 15.698 9.33655C15.7341 9.51013 15.887 9.63464 16.0639 9.63464C16.2409 9.63464 16.3937 9.51013 16.4299 9.33655C17.1063 6.09961 19.9947 3.75 23.2975 3.75C27.1674 3.75 30.3158 6.90674 30.3158 10.7871C30.3158 14.0746 28.0848 16.8904 24.8904 17.6349Z" stroke="#3DB370" stroke-width="2"/>
</svg>

<svg xmlns="http://www.w3.org/2000/svg" width="200" height="36" fill="none"><path fill="#16133D" d="M48.132 31c-.42 0-.77-.14-1.05-.42a1.448 1.448 0 0 1-.385-1.015V7.9c0-.397.128-.723.385-.98.28-.28.618-.42 1.015-.42h12.285c.397 0 .735.128 1.015.385.28.257.42.583.42.98 0 .373-.14.688-.42.945-.28.257-.618.385-1.015.385H49.357l.21-.28v8.575l-.175-.385h9.415c.397 0 .735.14 1.015.42.28.257.42.583.42.98 0 .35-.14.665-.42.945-.28.257-.618.385-1.015.385h-9.485l.245-.315v10.045c0 .397-.14.735-.42 1.015-.28.28-.618.42-1.015.42Zm18.957 0c-.396 0-.735-.14-1.015-.42a1.449 1.449 0 0 1-.385-1.015v-15.26c0-.397.129-.723.385-.98.28-.28.619-.42 1.015-.42.42 0 .759.14 1.015.42.257.257.385.583.385.98v4.62l-.42-.735c.14-.723.385-1.423.735-2.1.374-.7.84-1.318 1.4-1.855a5.956 5.956 0 0 1 1.925-1.295 5.715 5.715 0 0 1 2.38-.49c.514 0 .98.128 1.4.385.444.233.665.572.665 1.015 0 .49-.128.852-.385 1.085-.256.233-.548.35-.875.35-.303 0-.595-.058-.875-.175-.28-.14-.63-.21-1.05-.21-.583 0-1.166.163-1.75.49-.56.303-1.085.747-1.575 1.33a7.978 7.978 0 0 0-1.155 1.995 6.44 6.44 0 0 0-.42 2.345v8.505c0 .397-.14.735-.42 1.015a1.27 1.27 0 0 1-.98.42Zm20.227.35c-1.867 0-3.5-.397-4.9-1.19a8.644 8.644 0 0 1-3.29-3.255c-.77-1.4-1.155-3.01-1.155-4.83 0-2.03.397-3.757 1.19-5.18.817-1.447 1.867-2.543 3.15-3.29 1.307-.77 2.683-1.155 4.13-1.155 1.073 0 2.112.198 3.115.595a7.76 7.76 0 0 1 2.66 1.75c.77.747 1.389 1.657 1.855 2.73.467 1.05.712 2.228.735 3.535 0 .373-.14.688-.42.945-.28.257-.606.385-.98.385H79.581l-.63-2.415h13.475l-.56.49v-.77c-.093-.957-.42-1.773-.98-2.45a5.35 5.35 0 0 0-1.995-1.61 5.544 5.544 0 0 0-2.45-.56c-.7 0-1.4.128-2.1.385-.676.233-1.295.63-1.855 1.19-.537.537-.98 1.237-1.33 2.1-.327.863-.49 1.902-.49 3.115 0 1.353.269 2.543.805 3.57a6.477 6.477 0 0 0 2.31 2.45c.98.583 2.123.875 3.43.875.817 0 1.529-.105 2.135-.315a6.6 6.6 0 0 0 1.575-.77 7.997 7.997 0 0 0 1.12-.98c.303-.21.595-.315.875-.315.35 0 .63.117.84.35.234.233.35.513.35.84 0 .397-.186.747-.56 1.05-.653.723-1.54 1.365-2.66 1.925a8.157 8.157 0 0 1-3.57.805Zm20.064 0c-1.867 0-3.5-.397-4.9-1.19a8.645 8.645 0 0 1-3.29-3.255c-.77-1.4-1.155-3.01-1.155-4.83 0-2.03.396-3.757 1.19-5.18.816-1.447 1.866-2.543 3.15-3.29 1.306-.77 2.683-1.155 4.13-1.155 1.073 0 2.111.198 3.115.595 1.003.397 1.89.98 2.66 1.75.77.747 1.388 1.657 1.855 2.73.466 1.05.711 2.228.735 3.535 0 .373-.14.688-.42.945-.28.257-.607.385-.98.385H99.645l-.63-2.415h13.475l-.56.49v-.77c-.094-.957-.42-1.773-.98-2.45a5.356 5.356 0 0 0-1.995-1.61 5.546 5.546 0 0 0-2.45-.56c-.7 0-1.4.128-2.1.385-.677.233-1.295.63-1.855 1.19-.537.537-.98 1.237-1.33 2.1-.327.863-.49 1.902-.49 3.115 0 1.353.268 2.543.805 3.57a6.477 6.477 0 0 0 2.31 2.45c.98.583 2.123.875 3.43.875.816 0 1.528-.105 2.135-.315a6.627 6.627 0 0 0 1.575-.77 8.06 8.06 0 0 0 1.12-.98c.303-.21.595-.315.875-.315.35 0 .63.117.84.35.233.233.35.513.35.84 0 .397-.187.747-.56 1.05-.654.723-1.54 1.365-2.66 1.925a8.157 8.157 0 0 1-3.57.805Zm20.448-18.725c1.54 0 2.753.338 3.64 1.015.91.653 1.552 1.54 1.925 2.66.397 1.097.595 2.322.595 3.675v9.59c0 .397-.14.735-.42 1.015-.257.28-.583.42-.98.42s-.735-.14-1.015-.42a1.447 1.447 0 0 1-.385-1.015v-9.59c0-.887-.128-1.68-.385-2.38a3.418 3.418 0 0 0-1.295-1.715c-.583-.443-1.388-.665-2.415-.665-.957 0-1.832.222-2.625.665a4.976 4.976 0 0 0-1.89 1.715c-.467.7-.7 1.493-.7 2.38v9.59c0 .397-.14.735-.42 1.015-.257.28-.583.42-.98.42s-.735-.14-1.015-.42a1.447 1.447 0 0 1-.385-1.015V6.5c0-.397.128-.723.385-.98.28-.28.618-.42 1.015-.42.42 0 .758.14 1.015.42.257.257.385.583.385.98v10.465l-.7.77c.117-.607.373-1.213.77-1.82.397-.63.898-1.19 1.505-1.68a7.27 7.27 0 0 1 2.03-1.155 6.172 6.172 0 0 1 2.345-.455Zm26.258.105c.396 0 .723.14.98.42.28.257.42.583.42.98v15.435c0 .397-.14.735-.42 1.015-.257.28-.584.42-.98.42-.42 0-.759-.14-1.015-.42a1.447 1.447 0 0 1-.385-1.015V26.24l.665-.07c0 .513-.175 1.073-.525 1.68-.35.607-.829 1.178-1.435 1.715-.607.513-1.33.945-2.17 1.295a7.1 7.1 0 0 1-2.66.49c-1.587 0-3.01-.408-4.27-1.225-1.26-.84-2.264-1.972-3.01-3.395-.724-1.423-1.085-3.045-1.085-4.865 0-1.843.361-3.465 1.085-4.865.746-1.423 1.75-2.532 3.01-3.325 1.26-.817 2.66-1.225 4.2-1.225a7.85 7.85 0 0 1 2.8.49c.863.327 1.61.77 2.24 1.33.653.56 1.155 1.178 1.505 1.855.373.677.56 1.353.56 2.03l-.91-.21V14.13c0-.397.128-.723.385-.98.256-.28.595-.42 1.015-.42Zm-7.21 16.03c1.166 0 2.193-.303 3.08-.91.91-.607 1.61-1.423 2.1-2.45.513-1.05.77-2.228.77-3.535 0-1.283-.257-2.438-.77-3.465-.49-1.05-1.19-1.867-2.1-2.45-.887-.607-1.914-.91-3.08-.91-1.144 0-2.17.292-3.08.875-.887.583-1.587 1.388-2.1 2.415-.514 1.027-.77 2.205-.77 3.535 0 1.307.245 2.485.735 3.535.513 1.027 1.213 1.843 2.1 2.45.91.607 1.948.91 3.115.91Zm22.794-16.31c1.586 0 2.835.327 3.745.98.91.653 1.551 1.528 1.925 2.625.396 1.097.595 2.322.595 3.675v9.835c0 .397-.14.735-.42 1.015-.257.28-.584.42-.98.42-.397 0-.735-.14-1.015-.42a1.447 1.447 0 0 1-.385-1.015V19.8c0-.887-.14-1.68-.42-2.38a3.357 3.357 0 0 0-1.33-1.715c-.607-.443-1.447-.665-2.52-.665-.98 0-1.879.222-2.695.665a5.18 5.18 0 0 0-1.96 1.715 4.05 4.05 0 0 0-.735 2.38v9.765c0 .397-.14.735-.42 1.015-.257.28-.584.42-.98.42-.397 0-.735-.14-1.015-.42a1.447 1.447 0 0 1-.385-1.015v-15.26c0-.397.128-.723.385-.98.28-.28.618-.42 1.015-.42.42 0 .758.14 1.015.42.256.257.385.583.385.98v2.485l-.7.77c.116-.607.385-1.213.805-1.82.42-.63.945-1.19 1.575-1.68a7.66 7.66 0 0 1 2.1-1.155 6.53 6.53 0 0 1 2.415-.455Zm26.354-7.35c.397 0 .724.14.98.42.28.257.42.583.42.98v23.065c0 .397-.14.735-.42 1.015a1.27 1.27 0 0 1-.98.42c-.42 0-.758-.14-1.015-.42a1.452 1.452 0 0 1-.385-1.015V26.24l.665-.245c0 .56-.175 1.155-.525 1.785-.35.607-.828 1.178-1.435 1.715-.606.537-1.33.98-2.17 1.33a6.678 6.678 0 0 1-2.66.525c-1.563 0-2.986-.408-4.27-1.225-1.26-.817-2.263-1.937-3.01-3.36-.723-1.423-1.085-3.045-1.085-4.865 0-1.843.362-3.477 1.085-4.9.747-1.423 1.75-2.532 3.01-3.325 1.26-.817 2.66-1.225 4.2-1.225.98 0 1.902.163 2.765.49.864.327 1.61.77 2.24 1.33a6.713 6.713 0 0 1 1.54 1.855c.374.677.56 1.353.56 2.03l-.91-.21V6.5c0-.397.129-.723.385-.98.257-.28.595-.42 1.015-.42Zm-7.21 23.66c1.167 0 2.194-.292 3.08-.875.91-.607 1.61-1.423 2.1-2.45.514-1.05.77-2.228.77-3.535 0-1.33-.256-2.508-.77-3.535-.49-1.027-1.19-1.832-2.1-2.415-.886-.607-1.913-.91-3.08-.91-1.143 0-2.17.303-3.08.91-.886.583-1.586 1.388-2.1 2.415-.513 1.027-.77 2.205-.77 3.535 0 1.283.257 2.45.77 3.5.514 1.027 1.214 1.843 2.1 2.45.91.607 1.937.91 3.08.91Z"/><path fill="#3DB370" stroke="#3DB370" d="M24.101 18c0-.405.28-.76.677-.852a6.497 6.497 0 0 0 5.038-6.36c0-3.606-2.926-6.538-6.518-6.538-3.066 0-5.75 2.183-6.379 5.189L24.101 18Zm0 0c0 .405.279.76.676.852L24.1 18Zm-7.182 8.561c.629 3.006 3.313 5.189 6.378 5.189 3.593 0 6.519-2.932 6.519-6.537a6.497 6.497 0 0 0-5.038-6.36l-7.859 7.708Zm0 0a.874.874 0 0 0-1.71 0c-.629 3.006-3.313 5.189-6.379 5.189-3.592 0-6.518-2.932-6.518-6.537a6.497 6.497 0 0 1 5.038-6.36.874.874 0 0 0 0-1.705l9.57 9.413ZM15.21 9.44C14.58 6.433 11.896 4.25 8.83 4.25c-3.592 0-6.518 2.932-6.518 6.537a6.497 6.497 0 0 0 5.038 6.36L15.21 9.44Zm0 0a.874.874 0 0 0 1.71 0h-1.71ZM8.83 33.5c3.055 0 5.806-1.705 7.234-4.28 1.428 2.575 4.178 4.28 7.233 4.28 4.56 0 8.267-3.718 8.267-8.287A8.246 8.246 0 0 0 27.369 18a8.246 8.246 0 0 0 4.195-7.213c0-4.569-3.707-8.287-8.267-8.287-3.055 0-5.805 1.705-7.233 4.28C14.636 4.205 11.885 2.5 8.83 2.5 4.27 2.5.564 6.218.564 10.787A8.246 8.246 0 0 0 4.758 18a8.246 8.246 0 0 0-4.194 7.213c0 4.569 3.706 8.287 8.266 8.287Z"/></svg>
